X:75
T:Ranzo Ray (c)
M:6/8
L:1/8
Q:1/4=100
K:Dm
C|\
D2^C D2E|F2E F2G|A2d c2B|A2G F2E|
D3   E3 |F2A G2F|E3  D3 |E3-E2A|
B2d  c2B|A2G F2E|F2A G2F|E2A, A,2A,|
D3   A2G|F3  E3 |D3- D2 ||
